frontend/public/svg/interface/record.svg

<svg width="121" height="107" viewBox="0 0 121 107" fill="none" xmlns="http://www.w3.org/2000/svg">
<g clip-path="url(#clip0)">
<path d="M62.0749 106.786C47.354 106.474 33.4895 103.256 21.1549 95.1194C9.6036 87.4966 2.3775 76.9578 1.30403 63.0243C0.525924 52.4081 2.64792 41.7803 7.44816 32.2521C10.3771 26.2788 13.9451 20.6948 18.6799 15.9133C28.2538 6.24464 39.9793 1.33938 53.5536 0.507872C62.8693 -0.063869 72.0654 0.32157 80.933 3.61407C88.4812 6.35216 95.5893 10.1536 102.037 14.9007C113.174 23.2016 119.678 34.0156 120.363 47.9482C121.128 63.4677 116.956 77.3458 106.298 89.0888C97.8067 98.4435 87.0588 103.551 74.7145 105.575C70.5484 106.255 66.291 106.396 62.0749 106.786ZM62.7493 96.785C64.4358 96.6915 67.3495 96.6787 70.2249 96.3454C81.0934 95.0878 90.6517 91.1772 98.0727 82.8615C107.677 72.097 110.41 59.472 108.634 45.5884C107.753 38.2645 104.064 31.5536 98.3258 26.8376C80.331 11.6456 59.8477 7.39907 37.0914 13.7527C36.4842 14.0217 35.8361 14.1896 35.1734 14.2496C33.421 14.1085 32.2066 15.0393 30.9995 16.0313C29.7923 17.0233 28.5629 17.9734 27.4582 19.0569C18.1893 27.9961 12.4316 39.8968 11.2106 52.6394C10.5701 58.6572 10.394 64.7765 12.7836 70.5887C15.8705 78.1167 21.4398 84.393 28.5884 88.3997C38.7525 94.3195 49.8479 96.6903 62.7493 96.785Z" fill="black"/>
<path d="M60.883 30.7021C67.3531 30.6757 71.9594 32.9324 75.4727 37.4154C75.9449 38.029 76.4484 38.618 76.9812 39.1803C82.9923 45.3966 84.2529 52.6848 81.4544 60.5873C75.324 77.9062 55.5371 82.3093 42.3443 72.785C35.4019 67.7728 32.702 60.8407 34.5144 52.4483C37.1804 40.1014 50.6126 30.2715 60.883 30.7021Z" fill="black"/>
</g>
<defs>
<clipPath id="clip0">
<rect width="120" height="107" fill="white" transform="translate(0.777344)"/>
</clipPath>
</defs>
</svg>

<svg xmlns="http://www.w3.org/2000/svg" width="121" height="107" fill="none" viewBox="0 0 121 107"><g fill="#000" clip-path="url(#a)"><path d="M62.075 106.786c-14.721-.312-28.586-3.53-40.92-11.667C9.604 87.497 2.378 76.958 1.304 63.024a58.8 58.8 0 0 1 6.144-30.772c2.93-5.973 6.497-11.557 11.232-16.339C28.254 6.245 39.98 1.34 53.554.508c9.315-.572 18.511-.186 27.379 3.106a83.8 83.8 0 0 1 21.104 11.287c11.137 8.3 17.641 19.115 18.326 33.047.765 15.52-3.407 29.398-14.065 41.14-8.491 9.356-19.24 14.463-31.583 16.487-4.167.68-8.424.821-12.64 1.211m.674-10.001c1.687-.093 4.6-.106 7.476-.44 10.868-1.257 20.427-5.168 27.848-13.483 9.604-10.765 12.337-23.39 10.561-37.274-.881-7.324-4.57-14.034-10.308-18.75C80.33 11.646 59.848 7.399 37.09 13.753a6.1 6.1 0 0 1-1.918.497c-1.752-.142-2.966.79-4.174 1.781-1.207.992-2.436 1.942-3.54 3.026-9.27 8.94-15.027 20.84-16.248 33.582-.64 6.018-.817 12.137 1.573 17.95 3.086 7.528 8.656 13.804 15.804 17.81 10.164 5.92 21.26 8.291 34.161 8.386"/><path d="M60.883 30.702c6.47-.026 11.076 2.23 14.59 6.713q.708.922 1.508 1.765c6.011 6.217 7.272 13.505 4.473 21.407-6.13 17.32-25.917 21.722-39.11 12.198-6.942-5.012-9.642-11.944-7.83-20.337 2.666-12.347 16.099-22.176 26.369-21.746"/></g><defs><clipPath id="a"><path fill="#fff" d="M.777 0h120v107h-120z"/></clipPath></defs></svg>
